_inc/systems/logos/gc.svg

<?xml version="1.0" encoding="utf-8"?>
<svg version="1.1" viewBox="0 0 264 56" xmlns="http://www.w3.org/2000/svg">
  <path d="M 31.801 28.458 L 31.801 34.309 L 7.636 34.309 L 7.636 49.252 L 25.244 49.252 L 25.244 45.111 L 15.092 45.111 L 15.092 38.855 L 32.25 38.855 C 32.25 38.855 32.25 45.677 32.25 50.265 C 32.176 52.177 28.362 56.001 26.231 56.001 C 22.278 56.001 11.592 56.001 6.57 56.001 C 3.8 56.001 0 52.195 0 50.274 C 0 44.435 0 38.745 0 33.768 C 0 30.554 2.092 28.458 4.818 28.458 C 9.331 28.458 31.801 28.458 31.801 28.458 Z" style="fill: rgb(255, 255, 255);"/>
  <polygon points="50.523 49.094 50.523 55.575 30.613 55.575 46.783 28.133 53.184 28.133 65.582 49.093 65.582 28.133 72.622 28.133 83.705 46.933 94.755 28.133 101.728 28.133 101.728 55.575 94.755 55.575 94.721 41.634 86.636 55.575 80.707 55.575 72.655 41.599 72.622 55.575 60.731 55.575 49.748 36.773 42.471 49.093" style="fill: rgb(255, 255, 255);"/>
  <polygon points="104.322 28.133 104.322 55.575 132.417 55.575 132.417 49.093 111.935 49.093 111.935 44.367 123.794 44.367 123.794 38.36 111.935 38.36 111.935 34.039 132.417 34.039 132.417 28.133" style="fill: rgb(255, 255, 255);"/>
  <path d="M 160.491 38.922 L 167.497 38.922 L 167.497 32.981 C 167.497 32.981 168.26 28.1 163.185 28.1 C 163.185 28.1 146.88 28.1 141.088 28.1 C 138.91 28.1 137.877 29.135 137.877 30.799 C 137.877 33.612 137.877 44.279 137.877 50.241 C 137.877 52.966 140.482 55.575 142.144 55.575 C 146.995 55.575 163.772 55.575 163.772 55.575 C 163.772 55.575 167.538 56.091 167.538 51.861 C 167.538 47.63 167.538 43.783 167.538 43.783 L 160.515 43.783 L 160.515 49.138 L 144.883 49.138 L 144.883 34.579 L 159.954 34.579 L 159.954 38.921 L 160.491 38.922 Z" style="fill: rgb(255, 255, 255);"/>
  <path d="M 170.214 28.098 L 177.76 28.098 L 177.76 49.161 L 193.375 49.161 L 193.375 28.098 L 200.929 28.098 L 200.929 50.798 C 200.929 50.798 201.41 55.658 194.47 55.658 C 187.53 55.658 176.145 55.658 176.145 55.658 C 176.145 55.658 170.215 56.199 170.215 50.798 C 170.214 47.035 170.214 28.098 170.214 28.098 Z" style="fill: rgb(255, 255, 255);"/>
  <path d="M 233.266 44.279 L 233.266 51.338 C 233.266 53.837 231.434 55.674 225.715 55.674 C 220.643 55.674 203.622 55.674 203.622 55.674 L 203.622 28.1 C 203.622 28.1 225.985 28.1 229.504 28.1 C 231.887 28.1 233.268 29.482 233.268 31.88 C 233.268 33.829 233.268 38.646 233.268 39.43 C 233.268 40.029 232.453 41.061 230.583 41.061 C 230.595 41.189 230.583 41.061 230.583 41.585 C 231.838 41.585 233.266 43.016 233.266 44.279 Z M 226.26 48.628 C 226.26 47.99 226.26 46.3 226.26 45.403 C 226.26 44.512 226.05 44.301 225.72 44.301 C 225.045 44.301 211.178 44.301 211.178 44.301 L 211.178 49.162 C 211.178 49.162 221.629 49.162 225.192 49.162 C 225.968 49.162 226.26 48.87 226.26 48.628 Z M 226.26 37.826 C 226.26 37.188 226.26 35.498 226.26 34.601 C 226.26 33.711 226.05 33.501 225.72 33.501 C 225.045 33.501 211.178 33.501 211.178 33.501 L 211.178 38.36 C 211.178 38.36 221.629 38.36 225.192 38.36 C 225.968 38.36 226.26 38.068 226.26 37.826 Z" style="fill: rgb(255, 255, 255);"/>
  <polygon points="235.939 55.673 264 55.673 264 49.127 242.946 49.127 242.946 44.334 254.804 44.334 254.804 38.36 242.946 38.36 242.946 34.039 263.461 34.039 263.461 28.065 235.939 28.065" style="fill: rgb(255, 255, 255);"/>
  <polygon points="103.122 0.288 103.122 3.528 109.589 3.528 109.589 20.776 113.946 20.776 113.946 3.528 120.369 3.528 120.369 0.288" style="fill: rgb(255, 255, 255);"/>
  <polygon points="5.82 0.016 5.82 20.504 9.592 20.504 9.592 5.45 17.677 20.504 21.956 20.504 21.956 0.016 17.644 0.016 17.644 12.369 11.176 0.016" style="fill: rgb(255, 255, 255);"/>
  <polygon points="70.493 0.016 70.493 20.504 74.266 20.504 74.266 5.45 82.351 20.504 86.63 20.504 86.63 0.016 82.318 0.016 82.318 12.369 75.851 0.016" style="fill: rgb(255, 255, 255);"/>
  <rect x="44.08" y="0.016" width="4.303" height="20.488" style="fill: rgb(255, 255, 255);"/>
  <path d="M 141.648 7.565 L 141.648 8.116 L 153.505 8.116 L 153.505 11.357 L 141.648 11.357 C 141.648 11.357 141.648 14.522 141.648 15.678 C 141.648 16.142 142.786 17.281 143.248 17.281 C 144.611 17.281 153.505 17.281 153.505 17.281 L 153.505 20.55 C 153.505 20.55 144.791 20.55 141.648 20.55 C 139.43 20.55 137.863 18.64 137.863 16.758 C 137.863 16.309 137.863 7.037 137.863 3.786 C 137.863 1.429 139.272 0.016 141.625 0.016 L 153.505 0.016 L 153.505 3.256 C 153.505 3.256 146.34 3.256 143.803 3.256 C 142.77 3.256 141.648 4.381 141.648 4.91" style="fill: rgb(255, 255, 255);"/>
  <path d="M 224.147 3.797 L 224.147 16.79 C 224.147 17.773 221.377 20.549 219.771 20.549 C 216.535 20.549 207.945 20.549 207.945 20.549 L 207.945 0.016 C 207.945 0.016 216.332 0.016 218.692 0.016 C 222.033 0.016 224.147 2.133 224.147 3.797 Z M 220.33 15.688 C 220.33 14.284 220.33 7.896 220.33 4.909 C 220.33 4.531 219.059 3.256 218.17 3.256 C 216.535 3.256 211.717 3.256 211.717 3.256 L 211.717 17.838 C 211.717 17.838 216.326 17.838 218.185 17.838 C 218.848 17.838 220.33 16.352 220.33 15.688 Z" style="fill: rgb(255, 255, 255);"/>
  <path d="M 259.16 4.876 C 259.16 6.379 259.16 12.675 259.16 15.646 C 259.16 18.75 256.831 21.079 253.263 21.079 C 253.247 21.079 253.237 21.079 253.22 21.079 C 250.153 21.079 251.032 21.079 247.842 21.079 L 247.798 21.079 C 244.349 21.079 242.064 18.913 241.907 15.97 C 241.902 15.862 241.902 15.754 241.902 15.646 C 241.902 13.593 241.902 6.909 241.902 4.877 C 241.902 4.504 241.902 4.289 241.902 4.289 C 241.902 2.226 244.122 0.001 246.737 0.001 C 248.671 0.001 254.282 0.001 254.282 0.001 C 257.446 0 259.16 1.712 259.16 4.876 Z M 254.821 15.154 C 254.821 14.646 254.821 6.33 254.821 5.417 C 254.821 4.623 253.441 3.24 252.665 3.24 C 251.889 3.24 248.386 3.24 248.386 3.24 C 247.276 3.24 246.197 4.321 246.197 5.33 C 246.197 5.99 246.197 14.122 246.197 15.154 C 246.197 16.692 246.785 17.282 247.83 17.282 C 248.79 17.282 251.42 17.282 252.698 17.282 C 253.744 17.282 254.821 16.201 254.821 15.154 Z" style="fill: rgb(255, 255, 255);"/>
  <polygon points="171.558 0.288 171.558 20.776 175.33 20.776 175.33 5.723 183.415 20.776 187.693 20.776 187.693 0.288 183.382 0.288 183.382 12.641 176.914 0.288" style="fill: rgb(255, 255, 255);"/>
</svg>

<svg xmlns="http://www.w3.org/2000/svg" viewBox="0 0 264 56"><path d="M31.8 28.46v5.85H7.64v14.94h17.6v-4.14H15.1v-6.26h17.16v11.42c-.07 1.9-3.89 5.73-6.02 5.73H6.57C3.8 56 0 52.2 0 50.27v-16.5c0-3.22 2.1-5.31 4.82-5.31zm18.72 20.63v6.49H30.61l16.17-27.45h6.4l12.4 20.96V28.13h7.04l11.09 18.8 11.05-18.8h6.97v27.45h-6.97l-.04-13.95-8.08 13.95h-5.93L72.66 41.6l-.04 13.98H60.73L49.75 36.77l-7.28 12.32zm53.8-20.96v27.45h28.1v-6.49h-20.48v-4.72h11.85v-6.01h-11.85v-4.32h20.48v-5.91zm56.18 10.79h7v-5.94s.76-4.88-4.31-4.88h-22.1c-2.18 0-3.21 1.04-3.21 2.7v19.44c0 2.73 2.6 5.34 4.26 5.34h21.63s3.77.51 3.77-3.72v-8.08h-7.03v5.36h-15.63V34.58h15.07v4.34zm9.71-10.82h7.55v21.06h15.62V28.1h7.55v22.7s.48 4.86-6.46 4.86h-18.32s-5.94.54-5.94-4.86zm63.06 16.18v7.06c0 2.5-1.84 4.33-7.56 4.33h-22.09V28.1h25.88c2.39 0 3.77 1.38 3.77 3.78v7.55c0 .6-.82 1.63-2.69 1.63v.52c1.26 0 2.69 1.44 2.69 2.7m-7.01 4.35V45.4c0-.89-.21-1.1-.54-1.1h-14.54v4.86h14.01c.78 0 1.07-.29 1.07-.53m0-10.8V34.6c0-.89-.21-1.1-.54-1.1h-14.54v4.86h14.01c.78 0 1.07-.3 1.07-.53m9.68 17.84H264v-6.54h-21.05v-4.8h11.85v-5.97h-11.85v-4.32h20.51v-5.97h-27.52zM103.12.29v3.24h6.47v17.25h4.36V3.53h6.42V.29zM5.82.02V20.5h3.77V5.45l8.09 15.05h4.28V.02h-4.32v12.35L11.18.02zm64.67 0V20.5h3.78V5.45l8.08 15.05h4.28V.02h-4.31v12.35L75.85.02zm-26.41 0h4.3v20.49h-4.3zm97.57 7.55v.55h11.85v3.24h-11.85v4.32c0 .46 1.14 1.6 1.6 1.6h10.25v3.27h-11.85a3.84 3.84 0 0 1-3.79-3.8V3.8c0-2.36 1.41-3.77 3.76-3.77h11.88v3.24h-9.7c-1.03 0-2.15 1.12-2.15 1.65m82.5-1.12v12.99c0 .98-2.77 3.76-4.38 3.76h-11.83V.02h10.75c3.34 0 5.46 2.11 5.46 3.78m-3.82 11.89V4.9c0-.38-1.27-1.65-2.16-1.65h-6.45v14.58h6.47c.66 0 2.14-1.49 2.14-2.15m38.83-10.8v10.77c0 3.1-2.33 5.43-5.9 5.43h-5.46c-3.45 0-5.74-2.17-5.9-5.11V4.28c0-2.05 2.22-4.28 4.84-4.28h7.54c3.17 0 4.88 1.71 4.88 4.88m-4.34 10.27V5.42c0-.8-1.38-2.18-2.16-2.18h-4.27c-1.11 0-2.2 1.08-2.2 2.09v9.82c0 1.54.6 2.13 1.64 2.13h4.87c1.04 0 2.12-1.08 2.12-2.13M171.56.29v20.49h3.77V5.72l8.09 15.06h4.27V.29h-4.31v12.35L176.91.29z" style="fill:#fff"/></svg>
